X:363
T:Reel 363
M:4/4
K:Dmaj
L:1/8
 (3ABc |d2cA BAFE|FEFG FEEA| (3ABc AA BAFA|Beed ce (3cBA |d2dA BAFA|dBcA BAFE|DEFA B2FA|Bdec d2|AA| (3Bcd cA BAFA|BdcA BAFA|BEED EFEd| (3Bcd ce dcBc| (3ded AF BdAF| (3DDD AD B2AF|GB2B cdcB|BAFE D2|
